X:7026
T:George Tremain's Quickstep
T:George Tremaine's Quickstep
R:Jig
C:Trad.
O:England; Yorkshire
Z:Paul Hardy's Session Tunebook 2022 (see www.paulhardy.net). Creative Commons cc by-nc-sa licenced.
M:6/8
L:1/8
Q:3/8=100
K:G
"G"DEF GAB|"Em"e2 B "G"d2 B|"Em"e2 B "G"BAG|B6|DEF GAB|"Em"e2 B "G"d2 B|"Em"e2 B "G"BAG|"Am"c6|
"G"d2B "Am"c2 A|"G"B2 A G3|B2 A "Em"GFE|"G"G2 F "Em"E3|"A"A2 A A2 A|A2 A A2 A|"A7"ABA GFE|"D"D3 d3||
"D"D2 E FEF|"G"G2 A B3|"C"cdc "D"B2 A|"G"d6|d2 B BAB|"Am"e2 A A3|c2 A AGA|"G"d2 G G3|
"D"D2 E FEF|"G"G2 A B3|"C"cdc "D"B2 A|"G"d3- d2 D|"Am"E2 c A2 E|"D"D2 d "G"B2 G|"D"AGA "D7"E2 F|"G"G3- G2||
D|"G"G2 G "D"F2 D|"Em"EFG "D"F2 D|"Em"EDE "G"G2 G|"D"F3- F2 D|"G"G2 G "D"F2 D|"Em"EFG "D"F2 D|"Em"EDE "D7"F2 E|"G"D3- D2 D|
"G"G2 G "D"F2 D|"Em"EFG "D"F2 D|"Em"E2 c c2 B|"A"A3-A2 B|A3-A2 B|A3-A2 B|ABA "D7"DEF|"G"G6||

